X: 495
T: Yuo tiedao
L: 1/16
M: 2/4
K: G
d2 e d e d B A [I:setbarnb 1]| 
A G A B d e d A | 
A d d G A G F E | 
E D G DD4 | 
G2 A B G2 F E | 
D2 d2 c2 B A | 
d e d G A G F E | 
D2 E GD4 |]

@@@ Tune index: 9369
